public/assets/img/logo.svg

<?xml version="1.0" encoding="UTF-8" standalone="no"?>
<svg width="134px" height="32px" viewBox="0 0 134 32" version="1.1" xmlns="http://www.w3.org/2000/svg" xmlns:xlink="http://www.w3.org/1999/xlink">
    <!-- Generator: Sketch 42 (36781) - http://www.bohemiancoding.com/sketch -->
    <title>logo formation business lab</title>
    <desc>Created with Sketch.</desc>
    <defs></defs>
    <g id="Symbols" stroke="none" stroke-width="1" fill="none" fill-rule="evenodd">
        <g id="logo-formation-business-lab" fill="#F36C91">
            <text id="B-COME" font-family="FiraSans-Bold, Fira Sans" font-size="24" font-weight="bold" letter-spacing="0.4375">
                <tspan x="34" y="25">B-COME</tspan>
            </text>
            <g id="logo-raccourci-air-liquide" transform="translate(0.000000, 3.000000)" fill-rule="nonzero">
                <path d="M13.0058441,0.461215805 L0.0470221585,0.461215805 L0.0470221585,13.6195441 C0.0470221585,20.9027052 5.83311015,26.7778723 13.0058441,26.7778723 C20.178578,26.7778723 25.964666,20.9024316 25.964666,13.6195441 C25.964666,6.38480243 20.178578,0.461215805 13.0058441,0.461215805 Z M22.187019,22.9417933 L13.0058441,22.9417933 C7.93719114,22.9417933 3.82466922,18.766231 3.82466922,13.6192705 C3.82466922,8.47258359 7.93692173,4.29674772 13.0058441,4.29674772 C18.0747665,4.29674772 22.187019,8.47258359 22.187019,13.6192705 L22.187019,22.9417933 Z M13.0058441,8.03571429 C16.0183708,8.03571429 18.505012,10.5119453 18.505012,13.6195441 L18.505012,19.1549544 L13.0058441,19.1549544 C9.99331739,19.1549544 7.50667623,16.6784498 7.50667623,13.5708511 C7.50667623,10.5603647 9.99331739,8.03571429 13.0058441,8.03571429 Z" id="Shape"></path>
            </g>
        </g>
    </g>
</svg>

<?xml version="1.0" encoding="UTF-8" standalone="no"?>
<svg
   xmlns:dc="http://purl.org/dc/elements/1.1/"
   xmlns:cc="http://creativecommons.org/ns#"
   xmlns:rdf="http://www.w3.org/1999/02/22-rdf-syntax-ns#"
   xmlns:svg="http://www.w3.org/2000/svg"
   xmlns="http://www.w3.org/2000/svg"
   xmlns:sodipodi="http://sodipodi.sourceforge.net/DTD/sodipodi-0.dtd"
   xmlns:inkscape="http://www.inkscape.org/namespaces/inkscape"
   width="134px"
   height="32px"
   viewBox="0 0 134 32"
   version="1.1"
   id="svg2"
   inkscape:version="0.91 r13725"
   sodipodi:docname="logo.svg">
  <metadata
     id="metadata19">
    <rdf:RDF>
      <cc:Work
         rdf:about="">
        <dc:format>image/svg+xml</dc:format>
        <dc:type
           rdf:resource="http://purl.org/dc/dcmitype/StillImage" />
        <dc:title>logo formation business lab</dc:title>
      </cc:Work>
    </rdf:RDF>
  </metadata>
  <sodipodi:namedview
     pagecolor="#ffffff"
     bordercolor="#666666"
     borderopacity="1"
     objecttolerance="10"
     gridtolerance="10"
     guidetolerance="10"
     inkscape:pageopacity="0"
     inkscape:pageshadow="2"
     inkscape:window-width="1535"
     inkscape:window-height="876"
     id="namedview17"
     showgrid="false"
     inkscape:zoom="2.3432836"
     inkscape:cx="51.636943"
     inkscape:cy="16"
     inkscape:window-x="65"
     inkscape:window-y="24"
     inkscape:window-maximized="1"
     inkscape:current-layer="svg2" />
  <!-- Generator: Sketch 42 (36781) - http://www.bohemiancoding.com/sketch -->
  <title
     id="title4">logo formation business lab</title>
  <desc
     id="desc6">Created with Sketch.</desc>
  <defs
     id="defs8" />
  <g
     id="Symbols"
     transform="matrix(0.93384646,0,0,0.93384646,0.79339336,-0.0300882)"
     style="fill:none;fill-rule:evenodd;stroke:none;stroke-width:1">
    <g
       id="logo-formation-business-lab"
       style="fill:#f36c91">
      <text
         id="B-COME"
         font-size="24"
         font-weight="bold"
         letter-spacing="0.4375"
         style="font-weight:bold;font-size:24px;font-family:FiraSans-Bold, 'Fira Sans';letter-spacing:0.4375">
        <tspan
           x="34"
           y="25"
           id="tspan13">B-COME</tspan>
      </text>
      <g
         id="logo-raccourci-air-liquide"
         transform="translate(0,3)"
         style="fill-rule:nonzero">
        <path
           d="m 13.005844,0.46121581 -12.95882184,0 0,13.15832819 c 0,7.283161 5.78608804,13.158328 12.95882184,13.158328 7.172734,0 12.958822,-5.87544 12.958822,-13.158328 0,-7.2347416 -5.786088,-13.15832819 -12.958822,-13.15832819 z m 9.181175,22.48057719 -9.181175,0 c -5.0686529,0 -9.1811748,-4.175562 -9.1811748,-9.322522 0,-5.1466874 4.1122525,-9.3225233 9.1811748,-9.3225233 5.068922,0 9.181175,4.1758359 9.181175,9.3225233 l 0,9.322522 z M 13.005844,8.0357143 c 3.012527,0 5.499168,2.4762307 5.499168,5.5838297 l 0,5.53541 -5.499168,0 c -3.0125266,0 -5.4991678,-2.476504 -5.4991678,-5.584103 0,-3.010486 2.4866412,-5.5351367 5.4991678,-5.5351367 z"
           id="Shape"
           inkscape:connector-curvature="0" />
      </g>
    </g>
  </g>
</svg>
